X:456
T:Galaien Escu Dantza
Z:Jack Campin, http://www.campin.me.uk/
F:Jack Campin's Nine-Note Tunebook
% last edit 03-02-2013
B:Collection published in Donostia, 1826
N:probably needs half-holing
M:2/4
L:1/8
Q:1/4=112
K:C
z   |c2     cc |c2  B>A|   GF  ED   |{G} E2 D2 |\
     G>G    GG |G>G FG |   A>G FE   |    D2 z :|
K:Eb
G/A/|B2     B>B|B2  AG |   A>G AF   |    G2 F2 |\
     B>B    BB |cB  AG |   FF  AD   |    E2 z2||
K:CMin
     G>G    GG |GA =Bc |   cc  cd/c/|{c}=B2 G2 |\
     cc/=B/ cG |AG  FE |{D}E3   D   |    C2  z|]


% == Catalan songs and dance tunes ==========================================

